assets/img/braze_icons/receipt-check.svg

<svg fill="none" height="24" viewBox="0 0 24 24" width="24" xmlns="http://www.w3.org/2000/svg"><path clip-rule="evenodd" d="m8.7587 2h6.4826c.805-.00001 1.4693-.00002 2.0105.0442.5621.04592 1.0788.14448 1.5642.39178.7526.38349 1.3645.99541 1.748 1.74806.2473.48534.3459 1.00204.3918 1.56414.0442.54119.0442 1.20554.0442 2.0105v13.24132c0 .3761-.2111.7204-.5462.8911-.3352.1707-.7378.1389-1.042-.0824l-2.1329-1.5512-1.9042 1.5234c-.3518.2814-.8485.2929-1.2129.0278l-2.1618-1.5722-2.16183 1.5722c-.36439.2651-.86102.2536-1.21286-.0278l-1.9042-1.5234-2.13294 1.5512c-.30418.2213-.70678.2531-1.04195.0824s-.54622-.515-.54622-.8911v-13.24131c-.00001-.80496-.00002-1.46933.0442-2.01051.04592-.5621.14448-1.0788.39178-1.56414.38349-.75265.99541-1.36457 1.74806-1.74806.48534-.2473 1.00204-.34586 1.56414-.39178.54118-.04422 1.20557-.04421 2.01052-.0442zm7.4484 6.70711c.3905-.39053.3905-1.02369 0-1.41422-.3905-.39052-1.0237-.39052-1.4142 0l-3.7929 3.79291-1.29289-1.29291c-.39053-.39052-1.02369-.39052-1.41422 0-.39052.39051-.39052 1.02371 0 1.41421l2.00001 2c.3905.3905 1.0237.3905 1.4142 0z" fill="#801ed7" fill-rule="evenodd"/></svg>

<svg width="24" height="24" viewBox="0 0 24 24" fill="none" xmlns="http://www.w3.org/2000/svg">
<path fill-rule="evenodd" clip-rule="evenodd" d="M8.7587 2H15.2413C16.0463 1.99999 16.7106 1.99998 17.2518 2.0442C17.8139 2.09012 18.3306 2.18868 18.816 2.43598C19.5686 2.81947 20.1805 3.43139 20.564 4.18404C20.8113 4.66938 20.9099 5.18608 20.9558 5.74818C21 6.28937 21 6.95372 21 7.75868V21C21 21.3761 20.7889 21.7204 20.4538 21.8911C20.1186 22.0618 19.716 22.03 19.4118 21.8087L17.2789 20.2575L15.3747 21.7809C15.0229 22.0623 14.5262 22.0738 14.1618 21.8087L12 20.2365L9.83817 21.8087C9.47378 22.0738 8.97715 22.0623 8.62531 21.7809L6.72111 20.2575L4.58817 21.8087C4.28399 22.03 3.88139 22.0618 3.54622 21.8911C3.21105 21.7204 3 21.3761 3 21V7.75869C2.99999 6.95373 2.99998 6.28936 3.0442 5.74818C3.09012 5.18608 3.18868 4.66938 3.43598 4.18404C3.81947 3.43139 4.43139 2.81947 5.18404 2.43598C5.66938 2.18868 6.18608 2.09012 6.74818 2.0442C7.28936 1.99998 7.95375 1.99999 8.7587 2ZM16.2071 8.70711C16.5976 8.31658 16.5976 7.68342 16.2071 7.29289C15.8166 6.90237 15.1834 6.90237 14.7929 7.29289L11 11.0858L9.70711 9.79289C9.31658 9.40237 8.68342 9.40237 8.29289 9.79289C7.90237 10.1834 7.90237 10.8166 8.29289 11.2071L10.2929 13.2071C10.6834 13.5976 11.3166 13.5976 11.7071 13.2071L16.2071 8.70711Z" fill="#801ED7"/>
</svg>
